src/assets/imgs/qr-code.svg

<?xml version="1.0" encoding="utf-8"?>
<!-- Generated by IcoMoon.io -->
<!DOCTYPE svg PUBLIC "-//W3C//DTD SVG 1.1//EN" "http://www.w3.org/Graphics/SVG/1.1/DTD/svg11.dtd">
<svg xmlns="http://www.w3.org/2000/svg" xmlns:xlink="http://www.w3.org/1999/xlink" version="1.1" width="512px" height="512px" viewBox="0 0 16 16">
<path fill="#FFFFFF" d="M6 0h-6v6h6v-6zM5 5h-4v-4h4v4z"/>
<path fill="#FFFFFF" d="M2 2h2v2h-2v-2z"/>
<path fill="#FFFFFF" d="M0 16h6v-6h-6v6zM1 11h4v4h-4v-4z"/>
<path fill="#FFFFFF" d="M2 12h2v2h-2v-2z"/>
<path fill="#FFFFFF" d="M10 0v6h6v-6h-6zM15 5h-4v-4h4v4z"/>
<path fill="#FFFFFF" d="M12 2h2v2h-2v-2z"/>
<path fill="#FFFFFF" d="M2 7h-2v2h3v-1h-1z"/>
<path fill="#FFFFFF" d="M7 9h2v2h-2v-2z"/>
<path fill="#FFFFFF" d="M3 7h2v1h-2v-1z"/>
<path fill="#FFFFFF" d="M9 12h-2v1h1v1h1v-1z"/>
<path fill="#FFFFFF" d="M6 7v1h-1v1h2v-2z"/>
<path fill="#FFFFFF" d="M8 4h1v2h-1v-2z"/>
<path fill="#FFFFFF" d="M9 8v1h2v-2h-3v1z"/>
<path fill="#FFFFFF" d="M7 6h1v1h-1v-1z"/>
<path fill="#FFFFFF" d="M9 14h2v2h-2v-2z"/>
<path fill="#FFFFFF" d="M7 14h1v2h-1v-2z"/>
<path fill="#FFFFFF" d="M9 11h1v1h-1v-1z"/>
<path fill="#FFFFFF" d="M9 3v-2h-1v-1h-1v4h1v-1z"/>
<path fill="#FFFFFF" d="M12 14h1v2h-1v-2z"/>
<path fill="#FFFFFF" d="M12 12h2v1h-2v-1z"/>
<path fill="#FFFFFF" d="M11 13h1v1h-1v-1z"/>
<path fill="#FFFFFF" d="M10 12h1v1h-1v-1z"/>
<path fill="#FFFFFF" d="M14 10v1h1v1h1v-2h-1z"/>
<path fill="#FFFFFF" d="M15 13h-1v3h2v-2h-1z"/>
<path fill="#FFFFFF" d="M10 10v1h3v-2h-2v1z"/>
<path fill="#FFFFFF" d="M12 7v1h2v1h2v-2h-2z"/>
</svg>

<svg xmlns="http://www.w3.org/2000/svg" width="512" height="512" viewBox="0 0 16 16"><path fill="#FFF" d="M6 0H0v6h6V0zM5 5H1V1h4v4z"/><path fill="#FFF" d="M2 2h2v2H2V2zM0 16h6v-6H0v6zm1-5h4v4H1v-4z"/><path fill="#FFF" d="M2 12h2v2H2v-2zM10 0v6h6V0h-6zm5 5h-4V1h4v4z"/><path fill="#FFF" d="M12 2h2v2h-2V2zM2 7H0v2h3V8H2zM7 9h2v2H7V9zM3 7h2v1H3V7zM9 12H7v1h1v1h1v-1zM6 7v1H5v1h2V7zM8 4h1v2H8V4zM9 8v1h2V7H8v1zM7 6h1v1H7V6zM9 14h2v2H9v-2zM7 14h1v2H7v-2zM9 11h1v1H9v-1zM9 3V1H8V0H7v4h1V3zM12 14h1v2h-1v-2zM12 12h2v1h-2v-1zM11 13h1v1h-1v-1zM10 12h1v1h-1v-1zM14 10v1h1v1h1v-2h-1zM15 13h-1v3h2v-2h-1zM10 10v1h3V9h-2v1zM12 7v1h2v1h2V7h-2z"/></svg>
